public/svg/button-call/phone.svg

<svg width="38" height="39" viewBox="0 0 38 39" fill="none" xmlns="http://www.w3.org/2000/svg">
<path fill-rule="evenodd" clip-rule="evenodd" d="M3.61863 3.04828C1.95163 4.7192 0.442703 6.3662 0.265625 6.70821C-0.234287 7.67372 0.0023048 11.1201 0.716882 13.2797C2.36216 18.2531 5.61493 23.1539 10.626 28.2102C16.8594 34.4996 23.262 38.2715 28.7792 38.9041C31.1449 39.1752 31.2836 39.0981 34.8155 35.5485C36.9841 33.3688 38 32.2005 38 31.886C38 31.5093 37.1798 30.933 33.5453 28.7554C31.0952 27.2877 28.927 26.0866 28.7272 26.0866C28.5274 26.0866 27.5837 26.8436 26.6304 27.7689C25.6772 28.6942 24.6548 29.5131 24.3587 29.5884C23.2073 29.8813 20.5227 28.5554 17.7465 26.3228C12.9614 22.4745 8.53673 16.2412 9.06796 14.0966C9.14125 13.8006 9.855 12.8581 10.6539 12.0027C11.6026 10.9868 12.1042 10.2782 12.0998 9.95988C12.0917 9.35099 7.29968 0.220954 6.92443 0.0992602C6.77325 0.0501592 5.28563 1.37716 3.61863 3.04828ZM17.1181 1.38308V2.76616L18.2144 2.90733C27.0044 4.03961 33.5678 10.7364 34.7608 19.7902L34.8934 20.7955H36.2666H37.64L37.5003 19.2332C37.0123 13.7741 33.6585 7.98695 28.827 4.26607C26.0368 2.11748 21.9832 0.485719 18.5943 0.147303L17.1181 0V1.38308ZM17.1931 6.72281C17.1388 6.8661 17.1231 7.48684 17.1584 8.1023L17.2225 9.22125L18.6843 9.56983C21.4695 10.2344 24.2008 11.929 25.7643 13.962C26.8578 15.3843 27.9295 17.6939 28.2475 19.314L28.5175 20.6897H29.8655H31.2134L31.1501 19.949C30.7598 15.3769 27.411 10.4534 23.1791 8.23013C20.8664 7.01488 17.4117 6.14524 17.1931 6.72281ZM17.2029 13.2581C17.1417 13.4194 17.1213 13.9578 17.1572 14.455C17.2175 15.2895 17.2829 15.3796 18.011 15.634C19.7822 16.2529 21.4004 17.8865 22.1569 19.8199C22.4965 20.6878 22.4998 20.6897 23.6187 20.6897C24.6847 20.6897 24.7383 20.6635 24.7062 20.1606C24.6293 18.9559 23.7458 17.1621 22.6251 15.9352C21.3269 14.514 20.2247 13.7951 18.5941 13.3053C17.2296 12.8956 17.3386 12.8994 17.2029 13.2581Z" fill="#E9EFE8"/>
</svg>

<svg width="38" height="39" fill="none" xmlns="http://www.w3.org/2000/svg"><path fill-rule="evenodd" clip-rule="evenodd" d="M3.619 3.048C1.952 4.72.443 6.366.266 6.708c-.5.966-.264 4.412.45 6.572 1.646 4.973 4.899 9.874 9.91 14.93 6.233 6.29 12.636 10.062 18.153 10.694 2.366.271 2.505.194 6.037-3.356C36.983 33.368 38 32.2 38 31.886c0-.377-.82-.953-4.455-3.13-2.45-1.468-4.618-2.67-4.818-2.67-.2 0-1.143.758-2.097 1.683-.953.925-1.975 1.744-2.271 1.82-1.152.292-3.836-1.034-6.613-3.266-4.785-3.849-9.21-10.082-8.678-12.226.073-.296.787-1.239 1.586-2.094.949-1.016 1.45-1.725 1.446-2.043C12.092 9.35 7.3.22 6.924.1 6.774.05 5.286 1.376 3.62 3.047zm13.5-1.665v1.383l1.095.141c8.79 1.133 15.354 7.83 16.547 16.883l.132 1.006h2.747l-.14-1.563c-.488-5.459-3.842-11.246-8.673-14.967-2.79-2.149-6.844-3.78-10.233-4.119L17.118 0v1.383zm.074 5.34c-.054.143-.07.764-.035 1.38l.064 1.118 1.462.349c2.785.664 5.517 2.359 7.08 4.392 1.094 1.422 2.166 3.732 2.483 5.352l.27 1.376h2.696l-.063-.741c-.39-4.572-3.739-9.496-7.97-11.719-2.314-1.215-5.768-2.085-5.987-1.507zm.01 6.535c-.061.161-.082.7-.046 1.197.06.835.126.925.854 1.179 1.771.619 3.39 2.253 4.146 4.186.34.868.343.87 1.462.87 1.066 0 1.12-.027 1.087-.53-.077-1.204-.96-2.998-2.08-4.225-1.3-1.421-2.401-2.14-4.032-2.63-1.364-.41-1.255-.406-1.391-.047z" fill="#E9EFE8"/></svg>
